X:1
T:[ID 2-30]
T:[ID 2-30]
T:Bezeichnung standardisiert: Gesundheit Herr Nachbar; Waltzer oder Schleifer Tantz. In dieser Quelle auch als: Trinklied. Wenns immer so w\"ar; In dieser Quelle auch als: Waltzer In dieser Quelle auch als: Waltzer Gesundheit Herr Nachbar da Gl\"aschen ist leer In dieser Quelle auch als: Waltzer Wenns immer so w\"ar, so ists recht In anderer Quelle: 1. Walzer - W. M. Visser 1817 (Anm. S. Wascher);
T:Urheber unbekannt Erstbeleg: 1767 (Datum in der schriftlichen Quelle) Datum in der hier transkribierten schriftlichen Quelle: 1796
C:Urheber unbekannt
C:Erstbeleg: 1767 (Datum in der schriftlichen Quelle)
C:Datum in der hier transkribierten schriftlichen Quelle: 1796
L:1/8
M:6/8
K:G
V:1 treble 
V:1
 D/F/ | GG D/F/ GG D/F/ | GG A/c/ B2 A/c/ | BB A/c/ BB A/c/ | BB/A/B/c/ d2 :: d | dgB dcA/B/ | %7
 ceA cBB/c/ | dgB dc A/B/ | ceA cBA | BBB AAA | ^ccc d2 D | GG/A/B/G/ EEE | cAF/A/ G2 d | %14
 cc/B/c/e/ dd/c/B/d/ | cc/B/c/e/ d2 B | cc/B/c/e/ d2 c/e/ | d/c/B/A/G/F/ G2 d | %18
 ec/e/g/e/ e/d/c/B/A/G/ | F/G/A/B/c/d/ cBd | ec/e/g/e/ e/d/c/B/A/G/ | F/G/A/B/c/F/ G3 :| %22

